app/images/icons/telegram_1.svg

<svg width="16" height="14" viewBox="0 0 16 14" fill="none" xmlns="http://www.w3.org/2000/svg">
<path fill-rule="evenodd" clip-rule="evenodd" d="M12.256 13.5188C12.4706 13.6708 12.7473 13.7088 12.994 13.6155C13.2406 13.5215 13.422 13.3108 13.4766 13.0555C14.0559 10.3329 15.4612 3.4417 15.9886 0.965092C16.0286 0.77843 15.9619 0.584434 15.8152 0.45977C15.6686 0.335107 15.4652 0.299107 15.2839 0.366439C12.4886 1.40108 3.88018 4.63101 0.36159 5.93298C0.138262 6.01564 -0.00706794 6.23031 0.00026523 6.46563C0.00826505 6.70163 0.166928 6.90629 0.39559 6.97496C1.97355 7.44695 4.04484 8.1036 4.04484 8.1036C4.04484 8.1036 5.01282 11.0269 5.51747 12.5135C5.5808 12.7002 5.7268 12.8468 5.91946 12.8975C6.11146 12.9475 6.31679 12.8948 6.46012 12.7595C7.27077 11.9942 8.52407 10.8109 8.52407 10.8109C8.52407 10.8109 10.9054 12.5568 12.256 13.5188ZM4.91615 7.73427L6.03546 11.4262L6.28412 9.08824C6.28412 9.08824 10.6087 5.18766 13.074 2.96438C13.146 2.89905 13.156 2.78972 13.096 2.71305C13.0366 2.63639 12.9273 2.61839 12.8453 2.67039C9.98804 4.49501 4.91615 7.73427 4.91615 7.73427Z" fill="#212126"/>
</svg>

<svg width="16" height="14" fill="none" xmlns="http://www.w3.org/2000/svg"><path fill-rule="evenodd" clip-rule="evenodd" d="M12.256 13.519c.215.152.491.19.738.097a.774.774 0 00.483-.56c.579-2.723 1.984-9.614 2.512-12.09a.52.52 0 00-.174-.506.534.534 0 00-.531-.094C12.489 1.401 3.88 4.631.362 5.933A.551.551 0 000 6.466c.008.236.167.44.396.509 1.578.472 3.649 1.129 3.649 1.129s.968 2.923 1.472 4.41c.064.186.21.333.402.384a.578.578 0 00.541-.139l2.064-1.948s2.381 1.746 3.732 2.708zm-7.34-5.785l1.12 3.692.248-2.338 6.79-6.124a.185.185 0 00.022-.251.19.19 0 00-.25-.043l-7.93 5.064z" fill="#212126"/></svg>
